X:1
T: Delaney's Drummers
C:
R:Jig
Q:180
K:G
M:6/8
L:1/16
gf|e2A2A2 f2A2A2|g2f2g2 a2g2e2|d2B2G2 G2A2G2|B2A2G2 B2c2d2|e2A2A2 F2A2A2|B2A2B2 g2f2e2|d2e2f2 g2d2B2|B2A2A2 A4gf|
e2A2A2 f2A2A2|g2f2g2 a2g2e2|d2B2G2 G2A2G2|B2A2G2 B2c2d2|e2A2A2 F2A2A2|B2A2B2 g2f2e2|d2e2f2 g2d2B2|B2A2A2 A4d2|
e2f2g2 a4a2|b2a2f2 g2f2e2|d2e2f2 g2f2g2|a2g2f2 g2e2d2|e2f2g2 a2b2c'2|b2a2f2 g2f2e2|d2e2f2 g2d2B2|B2A2A2 A4d2|
e2f2g2 a4a2|b2a2f2 g2f2e2|d2e2f2 g2f2g2|a2g2f2 g2e2d2|b2a2g2 a2g2f2|g2f2e2 f2d2B2|d2e2f2 g2d2B2|B2A2A2 A4||
